window_dev_tools.svg

<?xml version="1.0" encoding="UTF-8"?>
<!DOCTYPE svg PUBLIC "-//W3C//DTD SVG 1.1//EN" "http://www.w3.org/Graphics/SVG/1.1/DTD/svg11.dtd">
<!-- Creator: CorelDRAW -->
<svg xmlns="http://www.w3.org/2000/svg" xml:space="preserve" width="16px" height="16px" version="1.1" style="shape-rendering:geometricPrecision; text-rendering:geometricPrecision; image-rendering:optimizeQuality; fill-rule:evenodd; clip-rule:evenodd"
viewBox="0 0 16 16"
 xmlns:xlink="http://www.w3.org/1999/xlink"
 xmlns:xodm="http://www.corel.com/coreldraw/odm/2003">
 <defs>
  <style type="text/css">
   <![CDATA[
    .fil0 {fill:white;fill-rule:nonzero}
   ]]>
  </style>
 </defs>
 <g id="Layer_x0020_1">
  <metadata id="CorelCorpID_0Corel-Layer"/>
  <path class="fil0" d="M11.5 0l-9 0c-1.4,0 -2.5,1.1 -2.5,2.5l0 9c0,1.4 1.1,2.5 2.5,2.5l5.1 0c0,-0.1 0.1,-0.2 0.1,-0.2l0.5 -0.8 -5.7 0c-0.8,0 -1.5,-0.7 -1.5,-1.5l0 -7.5 12 0 1 0 0 -1.5c0,-1.4 -1.1,-2.5 -2.5,-2.5zm-3.7 10.9l1.2 -1.2c-0.2,-0.3 -0.2,-0.8 -0.2,-1.3l-1.7 1.7c-0.2,0.2 -0.2,0.5 0,0.7 0.2,0.2 0.6,0.3 0.7,0.1zm1.1 -3.1c0.1,-0.4 0.2,-0.7 0.4,-1l-1.5 -1.6c-0.2,-0.2 -0.5,-0.2 -0.7,0 -0.2,0.2 -0.1,0.6 0.1,0.7l1.7 1.9zm-6.1 0.3l2.1 -2.1c0.2,-0.2 0.2,-0.5 0,-0.7 -0.2,-0.2 -0.5,-0.2 -0.7,0l-2.5 2.5c-0.1,0.1 -0.1,0.1 -0.1,0.3 0,0.2 0,0.2 0.1,0.3l2.5 2.5c0.2,0.2 0.5,0.2 0.7,0 0.2,-0.2 0.2,-0.5 0,-0.7l-2.1 -2.1zm10.5 -2.1c-1,0 -1.9,0.5 -2.5,1.4 -0.6,1 -0.5,2.2 0.1,3l-1.9 3.7c-0.3,0.6 -0.1,1.3 0.4,1.6 0.5,0.3 1.2,0.1 1.6,-0.4l1.9 -3.7c1,0.1 2.1,-0.4 2.6,-1.4 0.6,-1 0.4,-2.3 -0.3,-3.2l-1.2 2.2c-0.3,0.4 -0.8,0.6 -1.2,0.3 -0.4,-0.2 -0.6,-0.7 -0.3,-1.2l1.3 -2.3c-0.2,0 -0.3,0 -0.5,0zm-0.3 -3l-12 0 0 -0.5c0,-0.8 0.7,-1.5 1.5,-1.5l9 0c0.8,0 1.5,0.7 1.5,1.5l0 0.5z"/>
 </g>
</svg>

<?xml version="1.0" encoding="utf-8"?>
<!-- Generator: Adobe Illustrator 26.5.0, SVG Export Plug-In . SVG Version: 6.00 Build 0)  -->
<svg version="1.1" id="Layer_1" xmlns:xodm="http://www.corel.com/coreldraw/odm/2003"
	 xmlns="http://www.w3.org/2000/svg" xmlns:xlink="http://www.w3.org/1999/xlink" x="0px" y="0px" width="16px" height="16px"
	 viewBox="0 0 16 16" style="enable-background:new 0 0 16 16;" xml:space="preserve">
<style type="text/css">
	.st0{fill:#FFFFFF;}
</style>
<path class="st0" d="M11.5,0h-9C1.1,0,0,1.1,0,2.5v9C0,12.9,1.1,14,2.5,14h5.1c0-0.1,0.1-0.2,0.1-0.2L8.2,13H2.5
	C1.7,13,1,12.3,1,11.5V4h12h1V2.5C14,1.1,12.9,0,11.5,0z M13,3H1V2.5C1,1.7,1.7,1,2.5,1h9C12.3,1,13,1.7,13,2.5V3z"/>
<path class="st0" d="M13.3,6c-1,0-1.9,0.5-2.5,1.4c-0.6,1-0.5,2.2,0.1,3L9,14.1c-0.3,0.6-0.1,1.3,0.4,1.6c0.5,0.3,1.2,0.1,1.6-0.4
	l1.9-3.7c1,0.1,2.1-0.4,2.6-1.4c0.6-1,0.4-2.3-0.3-3.2L14,9.2c-0.3,0.4-0.8,0.6-1.2,0.3c-0.4-0.2-0.6-0.7-0.3-1.2L13.8,6
	C13.6,6,13.5,6,13.3,6z"/>
<path class="st0" d="M2.8,8.1l2.1-2.1c0.2-0.2,0.2-0.5,0-0.7s-0.5-0.2-0.7,0L1.7,7.8C1.6,7.9,1.6,7.9,1.6,8.1s0,0.2,0.1,0.3l2.5,2.5
	c0.2,0.2,0.5,0.2,0.7,0s0.2-0.5,0-0.7L2.8,8.1z"/>
<path class="st0" d="M8.9,7.8c0.1-0.4,0.2-0.7,0.4-1L7.8,5.2c-0.2-0.2-0.5-0.2-0.7,0S7,5.8,7.2,5.9L8.9,7.8z"/>
<path class="st0" d="M7.8,10.9L9,9.7C8.8,9.4,8.8,8.9,8.8,8.4l-1.7,1.7c-0.2,0.2-0.2,0.5,0,0.7S7.7,11.1,7.8,10.9z"/>
</svg>
